X: 2
T: Tom Doherty's
R: reel
M: 4/4
L: 1/8
K: Bdor
|: f3 B2fdf | fefg afga | f3 B2fdf | ecAc eaga |
f3 B2fdf | fefg afga | bgaf gefa |1 ecAc eaga :|2 ecAc efga ||